public/images/icon_arrow-right.svg

<svg width="24" height="24" viewBox="0 0 24 24" fill="none" xmlns="http://www.w3.org/2000/svg">
<path fill-rule="evenodd" clip-rule="evenodd" d="M18.2071 6.29291L23.2071 11.2929L23.9142 12L23.2071 12.7071L18.2071 17.7071L16.7929 16.2929L20.0858 13H20.0514H20.0056H19.9599H19.9142H19.8686H19.8231H19.7777H19.7324H19.6871H19.6419H19.5968H19.5517H19.5067H19.4618H19.417H19.3723H19.3276H19.283H19.2384H19.194H19.1496H19.1053H19.061H19.0168H18.9727H18.9287H18.8847H18.8408H18.797H18.7532H18.7095H18.6658H18.6223H18.5788H18.5353H18.492H18.4487H18.4054H18.3622H18.3191H18.2761H18.2331H18.1901H18.1473H18.1045H18.0617H18.0191H17.9764H17.9339H17.8914H17.849H17.8066H17.7643H17.722H17.6798H17.6376H17.5956H17.5535H17.5115H17.4696H17.4278H17.386H17.3442H17.3025H17.2609H17.2193H17.1777H17.1363H17.0948H17.0534H17.0121H16.9708H16.9296H16.8884H16.8473H16.8063H16.7652H16.7243H16.6833H16.6425H16.6016H16.5608H16.5201H16.4794H16.4388H16.3982H16.3577H16.3172H16.2767H16.2363H16.1959H16.1556H16.1153H16.0751H16.0349H15.9947H15.9546H15.9146H15.8745H15.8345H15.7946H15.7547H15.7148H15.675H15.6352H15.5955H15.5558H15.5161H15.4765H15.4369H15.3973H15.3578H15.3183H15.2788H15.2394H15.2H15.1607H15.1214H15.0821H15.0428H15.0036H14.9644H14.9253H14.8862H14.8471H14.808H14.769H14.73H14.691H14.6521H14.6132H14.5743H14.5355H14.4967H14.4579H14.4191H14.3804H14.3416H14.3029H14.2643H14.2256H14.187H14.1484H14.1099H14.0713H14.0328H13.9943H13.9559H13.9174H13.879H13.8406H13.8022H13.7638H13.7255H13.6872H13.6489H13.6106H13.5723H13.534H13.4958H13.4576H13.4194H13.3812H13.3431H13.3049H13.2668H13.2287H13.1906H13.1525H13.1144H13.0764H13.0383H13.0003H12.9623H12.9242H12.8863H12.8483H12.8103H12.7723H12.7344H12.6964H12.6585H12.6206H12.5827H12.5448H12.5069H12.469H12.4311H12.3932H12.3553H12.3175H12.2796H12.2418H12.2039H12.1661H12.1282H12.0904H12.0526H12.0147H11.9769H11.9391H11.9013H11.8635H11.8256H11.7878H11.75H11.7122H11.6744H11.6365H11.5987H11.5609H11.5231H11.4853H11.4474H11.4096H11.3718H11.3339H11.2961H11.2582H11.2204H11.1825H11.1447H11.1068H11.0689H11.031H10.9931H10.9552H10.9173H10.8794H10.8415H10.8036H10.7656H10.7277H10.6897H10.6517H10.6137H10.5758H10.5377H10.4997H10.4617H10.4236H10.3856H10.3475H10.3094H10.2713H10.2332H10.1951H10.1569H10.1188H10.0806H10.0424H10.0042H9.96595H9.9277H9.88944H9.85115H9.81284H9.77452H9.73618H9.69781H9.65942H9.62102H9.58259H9.54414H9.50567H9.46718H9.42866H9.39012H9.35155H9.31297H9.27435H9.23571H9.19705H9.15836H9.11965H9.08091H9.04214H9.00335H8.96452H8.92567H8.8868H8.84789H8.80895H8.76999H8.73099H8.69197H8.65291H8.61382H8.5747H8.53555H8.49637H8.45716H8.41791H8.37863H8.33931H8.29997H8.26058H8.22117H8.18171H8.14222H8.1027H8.06314H8.02354H7.98391H7.94424H7.90453H7.86478H7.82499H7.78517H7.7453H7.7054H7.66545H7.62547H7.58544H7.54537H7.50527H7.46511H7.42492H7.38468H7.34441H7.30408H7.26371H7.2233H7.18285H7.14235H7.1018H7.06121H7.02057H6.97988H6.93915H6.89837H6.85754H6.81667H6.77574H6.73477H6.69375H6.65268H6.61155H6.57038H6.52916H6.48788H6.44656H6.40518H6.36375H6.32227H6.28073H6.23914H6.19749H6.1558H6.11404H6.07224H6.03037H5.98845H5.94648H5.90445H5.86236H5.82021H5.77801H5.73575H5.69343H5.65105H5.60861H5.56611H5.52355H5.48094H5.43826H5.39552H5.35271H5.30985H5.26692H5.22394H5.18088H5.13777H5.09459H5.05135H5.00804H4.96467H4.92123H4.87772H4.83415H4.79052H4.74681H4.70304H4.6592H4.6153H4.57132H4.52728H4.48317H4.43898H4.39473H4.35041H4.30602H4.26155H4.21702H4.17241H4.12773H4.08298H4.03815H3.99325H3.94828H3.90323H3.85811H3.81292H3.76764H3.7223H3.67687H3.63137H3.5858H3.54014H3.49441H3.4486H3.40272H3.35675H3.3107H3.26458H3.21837H3.17209H3.12572H3.07928H3.03275H2.98614H2.93945H2.89267H2.84582H2.79887H2.75185H2.70474H2.65755H2.61027H2.56291H2.51546H2.46792H2.4203H2.37259H2.3248H2.27692H2.22895H2.18089H2.13274H2.0845H2.03618H1.98776H1.93926H1.89066H1.84197H1.79319H1.74432H1.69536H1.64631H1.59716H1.54792H1.49858H1.44915H1.39963H1.35001H1.3003H1.25049H1.20059H1.15058H1.10049H1.05029H1V11H1.05029H1.10049H1.15058H1.20059H1.25049H1.3003H1.35001H1.39963H1.44915H1.49858H1.54792H1.59716H1.64631H1.69536H1.74432H1.79319H1.84197H1.89066H1.93926H1.98776H2.03618H2.0845H2.13274H2.18089H2.22895H2.27692H2.3248H2.37259H2.4203H2.46792H2.51546H2.56291H2.61027H2.65755H2.70474H2.75185H2.79887H2.84582H2.89267H2.93945H2.98614H3.03275H3.07928H3.12572H3.17209H3.21837H3.26458H3.3107H3.35675H3.40272H3.4486H3.49441H3.54014H3.5858H3.63137H3.67687H3.7223H3.76764H3.81292H3.85811H3.90323H3.94828H3.99325H4.03815H4.08298H4.12773H4.17241H4.21702H4.26155H4.30602H4.35041H4.39473H4.43898H4.48317H4.52728H4.57132H4.6153H4.6592H4.70304H4.74681H4.79052H4.83415H4.87772H4.92123H4.96467H5.00804H5.05135H5.09459H5.13777H5.18088H5.22394H5.26692H5.30985H5.35271H5.39552H5.43826H5.48094H5.52355H5.56611H5.60861H5.65105H5.69343H5.73575H5.77801H5.82021H5.86236H5.90445H5.94648H5.98845H6.03037H6.07224H6.11404H6.1558H6.19749H6.23914H6.28073H6.32227H6.36375H6.40518H6.44656H6.48788H6.52916H6.57038H6.61155H6.65268H6.69375H6.73477H6.77574H6.81667H6.85754H6.89837H6.93915H6.97988H7.02057H7.06121H7.1018H7.14235H7.18285H7.2233H7.26371H7.30408H7.34441H7.38468H7.42492H7.46511H7.50527H7.54537H7.58544H7.62547H7.66545H7.7054H7.7453H7.78517H7.82499H7.86478H7.90453H7.94424H7.98391H8.02354H8.06314H8.1027H8.14222H8.18171H8.22117H8.26058H8.29997H8.33931H8.37863H8.41791H8.45716H8.49637H8.53555H8.5747H8.61382H8.65291H8.69197H8.73099H8.76999H8.80895H8.84789H8.8868H8.92567H8.96452H9.00335H9.04214H9.08091H9.11965H9.15836H9.19705H9.23571H9.27435H9.31297H9.35155H9.39012H9.42866H9.46718H9.50567H9.54414H9.58259H9.62102H9.65942H9.69781H9.73618H9.77452H9.81284H9.85115H9.88944H9.9277H9.96595H10.0042H10.0424H10.0806H10.1188H10.1569H10.1951H10.2332H10.2713H10.3094H10.3475H10.3856H10.4236H10.4617H10.4997H10.5377H10.5758H10.6137H10.6517H10.6897H10.7277H10.7656H10.8036H10.8415H10.8794H10.9173H10.9552H10.9931H11.031H11.0689H11.1068H11.1447H11.1825H11.2204H11.2582H11.2961H11.3339H11.3718H11.4096H11.4474H11.4853H11.5231H11.5609H11.5987H11.6365H11.6744H11.7122H11.75H11.7878H11.8256H11.8635H11.9013H11.9391H11.9769H12.0147H12.0526H12.0904H12.1282H12.1661H12.2039H12.2418H12.2796H12.3175H12.3553H12.3932H12.4311H12.469H12.5069H12.5448H12.5827H12.6206H12.6585H12.6964H12.7344H12.7723H12.8103H12.8483H12.8863H12.9242H12.9623H13.0003H13.0383H13.0764H13.1144H13.1525H13.1906H13.2287H13.2668H13.3049H13.3431H13.3812H13.4194H13.4576H13.4958H13.534H13.5723H13.6106H13.6489H13.6872H13.7255H13.7638H13.8022H13.8406H13.879H13.9174H13.9559H13.9943H14.0328H14.0713H14.1099H14.1484H14.187H14.2256H14.2643H14.3029H14.3416H14.3804H14.4191H14.4579H14.4967H14.5355H14.5743H14.6132H14.6521H14.691H14.73H14.769H14.808H14.8471H14.8862H14.9253H14.9644H15.0036H15.0428H15.0821H15.1214H15.1607H15.2H15.2394H15.2788H15.3183H15.3578H15.3973H15.4369H15.4765H15.5161H15.5558H15.5955H15.6352H15.675H15.7148H15.7547H15.7946H15.8345H15.8745H15.9146H15.9546H15.9947H16.0349H16.0751H16.1153H16.1556H16.1959H16.2363H16.2767H16.3172H16.3577H16.3982H16.4388H16.4794H16.5201H16.5608H16.6016H16.6425H16.6833H16.7243H16.7652H16.8063H16.8473H16.8884H16.9296H16.9708H17.0121H17.0534H17.0948H17.1363H17.1777H17.2193H17.2609H17.3025H17.3442H17.386H17.4278H17.4696H17.5115H17.5535H17.5956H17.6376H17.6798H17.722H17.7643H17.8066H17.849H17.8914H17.9339H17.9764H18.0191H18.0617H18.1045H18.1473H18.1901H18.2331H18.2761H18.3191H18.3622H18.4054H18.4487H18.492H18.5353H18.5788H18.6223H18.6658H18.7095H18.7532H18.797H18.8408H18.8847H18.9287H18.9727H19.0168H19.061H19.1053H19.1496H19.194H19.2384H19.283H19.3276H19.3723H19.417H19.4618H19.5067H19.5517H19.5968H19.6419H19.6871H19.7324H19.7777H19.8231H19.8686H19.9142H19.9599H20.0056H20.0514H20.0858L16.7929 7.70712L18.2071 6.29291Z" fill="white"/>
</svg>

<?xml version="1.0" encoding="utf-8"?>
<!-- Generator: Adobe Illustrator 26.2.1, SVG Export Plug-In . SVG Version: 6.00 Build 0)  -->
<svg version="1.1" id="Layer_1" xmlns="http://www.w3.org/2000/svg" xmlns:xlink="http://www.w3.org/1999/xlink" x="0px" y="0px"
	 viewBox="0 0 24 24" style="enable-background:new 0 0 24 24;" xml:space="preserve">
<style type="text/css">
	.st0{fill-rule:evenodd;clip-rule:evenodd;fill:#618B4A;}
</style>
<path class="st0" d="M18.2,6.3l5,5l0.7,0.7l-0.7,0.7l-5,5l-1.4-1.4l3.3-3.3h0h0h0h0h0h0h0h0h0h0h0h0h0h0h0h0h0h0h0h0h0h0h0h0h0h0h0
	h0h0h0h0h0h0h0h0h0h0h0h0h0h0h0h0h0h0h0h0h0h0h0h0h0h0h0h0h0h0h0h0h0h0h0h0h0h0h0h0h0h0h0h0h0h0h0h0h0h0h0h0h0h0h0h0h0h0h0h0h0h0h0
	h0h0h0h0h0h0h0h0h0h0h0h0h0h0h0h0h0h0h0h0h0h0h0h0h0h0h0h0h0h0h0h0h0h0h0h0h0h0h0h0h0h0h0h0h0h0h0h0h0h0h0h0h0h0h0h0h0h0h0h0h0h0h0
	h0h0h0h0h0h0h0h0h0h0h0h0h0h0h0h0h0h0h0h0h0h0h0h0h0h0h0h0h0h0h0h0h0h0h0h0h0h0h0h0h0h0h0h0h0h0h0h0h0h0h0h0h0h0h0h0h0h0h0h0h0h0h0
	h0h0h0h0h0h0h0h0h0h0h0h0h0h0h0h0h0h0h0h0h0h0h0h0h0h0h0h0h0h0h0h0h0h0h0h0h0h0h0h0h0h0h0h0h0h0h0h0h0h0h0h0h0h0h0h0h0h0h0h0h0h0h0
	h0h0h0h0h0h0h0h0h0h0h0h0h0h0h0h0h0h0h0h0h0h0h0h0h0h0h0h0h0h0h0h0h0h0h0h0h0h0h0h0h0h0h0h0h0h0h0h0h0h0h0h0h0h0h0h0h0h0h0h0h0h0h0
	h0h0h0h0h0h0h0h0h0h0h0h0h0h0h0h0h0h0h0h0h0h0h0h0h0h0h0h0h0h0h0h0h0h0h0h0h0h0h0h0h0h0h0h0h0h0h0h0h0h0h0h0h0h0h0h0h0h0h0h0h0h0h0
	h0h0h0h0h0h0h0h0h0h0h0h0h0h0h0h0h0h0h0h0h0h0h0h0h0h0h0h0h0h0h0h0h0h0h0h0h0h0h0h0h0h0h0h0h0h0h0h0h0h0h0h0h0H1.2H1.1H1.1H1v-2h0.1
	h0.1h0.1h0.1h0h0h0h0h0h0h0h0h0h0h0h0h0h0h0h0h0h0h0h0h0h0h0h0h0h0h0h0h0h0h0h0h0h0h0h0h0h0h0h0h0h0h0h0h0h0h0h0h0h0h0h0h0h0h0h0h0
	h0h0h0h0h0h0h0h0h0h0h0h0h0h0h0h0h0h0h0h0h0h0h0h0h0h0h0h0h0h0h0h0h0h0h0h0h0h0h0h0h0h0h0h0h0h0h0h0h0h0h0h0h0h0h0h0h0h0h0h0h0h0h0
	h0h0h0h0h0h0h0h0h0h0h0h0h0h0h0h0h0h0h0h0h0h0h0h0h0h0h0h0h0h0h0h0h0h0h0h0h0h0h0h0h0h0h0h0h0h0h0h0h0h0h0h0h0h0h0h0h0h0h0h0h0h0h0
	h0h0h0h0h0h0h0h0h0h0h0h0h0h0h0h0h0h0h0h0h0h0h0h0h0h0h0h0h0h0h0h0h0h0h0h0h0h0h0h0h0h0h0h0h0h0h0h0h0h0h0h0h0h0h0h0h0h0h0h0h0h0h0
	h0h0h0h0h0h0h0h0h0h0h0h0h0h0h0h0h0h0h0h0h0h0h0h0h0h0h0h0h0h0h0h0h0h0h0h0h0h0h0h0h0h0h0h0h0h0h0h0h0h0h0h0h0h0h0h0h0h0h0h0h0h0h0
	h0h0h0h0h0h0h0h0h0h0h0h0h0h0h0h0h0h0h0h0h0h0h0h0h0h0h0h0h0h0h0h0h0h0h0h0h0h0h0h0h0h0h0h0h0h0h0h0h0h0h0h0h0h0h0h0h0h0h0h0h0h0h0
	h0h0h0h0h0h0h0h0h0h0h0h0h0h0h0h0h0h0h0h0h0h0h0h0h0h0h0h0h0h0h0h0h0h0h0h0h0h0h0h0h0h0h0h0h0h0h0h0h0h0h0h0h0h0h0h0h0h0h0h0h0h0h0
	h0h0h0h0h0h0h0h0h0h0h0h0h0h0h0h0h0h0h0h0h0h0h0l-3.3-3.3L18.2,6.3z"/>
</svg>
